style/svgs/types/checkbox_type.svg

<?xml version="1.0" encoding="UTF-8"?>
<svg width="100px" height="100px" viewBox="0 0 100 100" version="1.1" xmlns="http://www.w3.org/2000/svg" xmlns:xlink="http://www.w3.org/1999/xlink">
    <title>Artboard Copy 292</title>
    <g id="Artboard-Copy-292" stroke="none" stroke-width="1" fill="none" fill-rule="evenodd">
        <path d="M78.3093923,92 C82.8574586,92 86.2762431,90.8552486 88.5657459,88.5657459 C90.8552486,86.2762431 92,82.9038674 92,78.4486188 L92,21.5513812 C92,17.0651934 90.8552486,13.6850829 88.5657459,11.4110497 C86.2762431,9.13701657 82.8574586,8 78.3093923,8 L21.6441989,8 C17.1270718,8 13.7237569,9.13701657 11.4342541,11.4110497 C9.14475138,13.6850829 8,17.0651934 8,21.5513812 L8,78.4486188 C8,82.9348066 9.14475138,86.3149171 11.4342541,88.5889503 C13.7237569,90.8629834 17.1270718,92 21.6441989,92 L78.3093923,92 Z M78.2165746,86.2917127 L21.7834254,86.2917127 C19.1535912,86.2917127 17.1502762,85.6110497 15.7734807,84.2497238 C14.3966851,82.8883978 13.7082873,80.8618785 13.7082873,78.1701657 L13.7082873,21.8298343 C13.7082873,19.1381215 14.3966851,17.1116022 15.7734807,15.7502762 C17.1502762,14.3889503 19.1535912,13.7082873 21.7834254,13.7082873 L78.2165746,13.7082873 C80.7845304,13.7082873 82.7723757,14.3889503 84.1801105,15.7502762 C85.5878453,17.1116022 86.2917127,19.1381215 86.2917127,21.8298343 L86.2917127,78.1701657 C86.2917127,80.8618785 85.5878453,82.8883978 84.1801105,84.2497238 C82.7723757,85.6110497 80.7845304,86.2917127 78.2165746,86.2917127 Z M44.9878453,71.9049724 C46.1635359,71.9049724 47.1226519,71.3635359 47.8651934,70.280663 L70.4198895,35.0099448 C70.6364641,34.6696133 70.8298343,34.3060773 71,33.919337 C71.1701657,33.5325967 71.2552486,33.1535912 71.2552486,32.7823204 C71.2552486,32.0088398 70.961326,31.3745856 70.3734807,30.879558 C69.7856354,30.3845304 69.120442,30.1370166 68.3779006,30.1370166 C67.3878453,30.1370166 66.5524862,30.6629834 65.8718232,31.7149171 L44.8486188,64.9436464 L34.1281768,51.7171271 C33.7259669,51.1911602 33.3160221,50.8276243 32.8983425,50.6265193 C32.480663,50.4254144 32.0088398,50.3248619 31.4828729,50.3248619 C30.7403315,50.3248619 30.0983425,50.6033149 29.5569061,51.160221 C29.0154696,51.7171271 28.7447514,52.3823204 28.7447514,53.1558011 C28.7447514,53.8674033 29.0232044,54.6099448 29.5801105,55.3834254 L42.0176796,70.280663 C42.4508287,70.8375691 42.9071823,71.2475138 43.3867403,71.5104972 C43.8662983,71.7734807 44.4,71.9049724 44.9878453,71.9049724 Z" id="􀃲" fill="#3E3E3E" fill-rule="nonzero"></path>
    </g>
</svg>

<svg width="100" height="100" xmlns="http://www.w3.org/2000/svg"><path d="M78.31 92c4.547 0 7.966-1.145 10.256-3.434C90.856 86.276 92 82.904 92 78.449V21.55c0-4.486-1.145-7.866-3.434-10.14C86.276 9.137 82.857 8 78.309 8H21.644c-4.517 0-7.92 1.137-10.21 3.411C9.144 13.685 8 17.065 8 21.551V78.45c0 4.486 1.145 7.866 3.434 10.14C13.724 90.863 17.127 92 21.644 92H78.31Zm-.093-5.708H21.783c-2.63 0-4.633-.681-6.01-2.042-1.376-1.362-2.065-3.388-2.065-6.08V21.83c0-2.692.689-4.718 2.065-6.08 1.377-1.361 3.38-2.042 6.01-2.042h56.434c2.568 0 4.555.681 5.963 2.042 1.408 1.362 2.112 3.388 2.112 6.08v56.34c0 2.692-.704 4.718-2.112 6.08-1.408 1.361-3.395 2.042-5.963 2.042Zm-33.23-14.387c1.177 0 2.136-.541 2.878-1.624L70.42 35.01c.216-.34.41-.704.58-1.09a2.81 2.81 0 0 0 .255-1.138c0-.773-.294-1.407-.882-1.902-.587-.495-1.253-.743-1.995-.743-.99 0-1.826.526-2.506 1.578L44.849 64.944l-10.72-13.227c-.403-.526-.813-.89-1.23-1.09a3.222 3.222 0 0 0-1.416-.302c-.743 0-1.385.278-1.926.835a2.763 2.763 0 0 0-.812 1.996c0 .711.278 1.454.835 2.227l12.438 14.898c.433.557.89.967 1.369 1.23.48.262 1.013.394 1.6.394Z" fill="#3E3E3E" fill-rule="nonzero"/></svg>
